X:0596
T:The Amazon.
M:C
L:1/8
Q:1/2=96
I: || ||
N:bar 11 printed |a2g {g}f2ed|
Z:Jack Campin * www.campin.me.uk * 2009
K:D
f3 g  a2  d2|  {f}e2 dc    d4|TB2A2 {d}c2  d2 |{ef}g2 f2  {f}e4 |
e2a2 ^g3   a|     b2 d2 {d}c4| d3 f   (ec)(BA)| {c}B2 A^G    A4||
d3 f (Bc) d2|({ef}g2)f2 {f}e4| a3 g {g}f2  ed | {f}e2(dc) {c}d4 |
d3 f (Bc) d2| {ef}g2 f2 {f}e4| a3 g {g}f2  ed | {f}e2 dc  {c}d4|]
<end>
<start>
